Numix/24/devices/input-gaming.svg

<?xml version="1.0" encoding="UTF-8" standalone="no"?>
<svg
   xmlns:dc="http://purl.org/dc/elements/1.1/"
   xmlns:cc="http://creativecommons.org/ns#"
   xmlns:rdf="http://www.w3.org/1999/02/22-rdf-syntax-ns#"
   xmlns:svg="http://www.w3.org/2000/svg"
   xmlns="http://www.w3.org/2000/svg"
   xmlns:sodipodi="http://sodipodi.sourceforge.net/DTD/sodipodi-0.dtd"
   xmlns:inkscape="http://www.inkscape.org/namespaces/inkscape"
   width="24"
   height="24"
   viewBox="0 0 24 24"
   id="svg2"
   version="1.1"
   inkscape:version="0.91 r"
   sodipodi:docname="input-gaming.svg">
  <metadata
     id="metadata16">
    <rdf:RDF>
      <cc:Work
         rdf:about="">
        <dc:format>image/svg+xml</dc:format>
        <dc:type
           rdf:resource="http://purl.org/dc/dcmitype/StillImage" />
        <dc:title />
      </cc:Work>
    </rdf:RDF>
  </metadata>
  <defs
     id="defs14" />
  <sodipodi:namedview
     pagecolor="#ffffff"
     bordercolor="#666666"
     borderopacity="1"
     objecttolerance="10"
     gridtolerance="10"
     guidetolerance="10"
     inkscape:pageopacity="0"
     inkscape:pageshadow="2"
     inkscape:window-width="1920"
     inkscape:window-height="1056"
     id="namedview12"
     showgrid="true"
     inkscape:zoom="10.727273"
     inkscape:cx="-14.495762"
     inkscape:cy="11"
     inkscape:window-x="0"
     inkscape:window-y="24"
     inkscape:window-maximized="1"
     inkscape:current-layer="svg2">
    <inkscape:grid
       type="xygrid"
       id="grid3014" />
  </sodipodi:namedview>
  <g
     id="g4156"
     transform="translate(1,1)">
    <path
       sodipodi:nodetypes="sssssccsssssccss"
       inkscape:connector-curvature="0"
       id="path4200"
       d="M 5.9243165,4.251885 C 5.384894,4.274005 4.9409355,4.5049095 4.635254,4.736758 2.8279527,6.107521 1.25,11.82553 1.25,14.851695 c 0,3.026164 0.6956888,2.897515 1.2993165,2.897515 0.603627,0 1.3625527,-0.415099 2.025879,-0.999042 C 6.4064145,15.138101 7.249924,13 9.070801,13 l 3.858399,0 c 1.820875,0 2.664385,2.138101 4.495604,3.750168 0.663327,0.583943 1.422252,0.999042 2.025879,0.999042 0.603628,0 1.299317,0.128649 1.299317,-2.897515 C 20.75,11.82553 19.172047,6.107521 17.364746,4.736758 16.875655,4.365801 16.033884,3.99634 15.009277,4.483335 14.322203,4.8099 13.708085,5 12.810546,5 L 9.189453,5 C 8.291914,5 7.677796,4.8099 6.990723,4.483335 6.606495,4.3007115 6.24797,4.238614 5.9243165,4.251885 Z"
       style="fill:#deddc9;fill-opacity:1;fill-rule:evenodd;stroke:none;stroke-width:1px;stroke-linecap:butt;stroke-linejoin:miter;stroke-opacity:1" />
    <ellipse
       ry="1.5000283"
       rx="1.5"
       cy="8.9999714"
       cx="6.5"
       id="path4208"
       style="opacity:1;fill:#3b3b3b;fill-opacity:1;fill-rule:nonzero;stroke:none;stroke-width:1.5;stroke-linecap:round;stroke-linejoin:miter;stroke-miterlimit:4;stroke-dasharray:none;stroke-dashoffset:0;stroke-opacity:1" />
    <ellipse
       ry="0.75001413"
       rx="0.75"
       cy="7.4999857"
       cx="16.25"
       id="path4210"
       style="opacity:1;fill:#df8003;fill-opacity:1;fill-rule:nonzero;stroke:none;stroke-width:1.5;stroke-linecap:round;stroke-linejoin:miter;stroke-miterlimit:4;stroke-dasharray:none;stroke-dashoffset:0;stroke-opacity:1" />
    <ellipse
       ry="0.75001413"
       rx="0.75"
       style="opacity:1;fill:#e45146;fill-opacity:1;fill-rule:nonzero;stroke:none;stroke-width:1.5;stroke-linecap:round;stroke-linejoin:miter;stroke-miterlimit:4;stroke-dasharray:none;stroke-dashoffset:0;stroke-opacity:1"
       id="circle4212"
       cx="17.75"
       cy="8.9999857" />
    <ellipse
       ry="0.75001413"
       rx="0.75"
       cy="10.499986"
       cx="16.25"
       id="circle4214"
       style="opacity:1;fill:#68bf45;fill-opacity:1;fill-rule:nonzero;stroke:none;stroke-width:1.5;stroke-linecap:round;stroke-linejoin:miter;stroke-miterlimit:4;stroke-dasharray:none;stroke-dashoffset:0;stroke-opacity:1" />
    <ellipse
       ry="0.75001413"
       rx="0.75"
       style="opacity:1;fill:#5b6dc1;fill-opacity:1;fill-rule:nonzero;stroke:none;stroke-width:1.5;stroke-linecap:round;stroke-linejoin:miter;stroke-miterlimit:4;stroke-dasharray:none;stroke-dashoffset:0;stroke-opacity:1"
       id="circle4216"
       cx="14.75"
       cy="8.9999857" />
    <ellipse
       ry="0.625"
       rx="0.62498868"
       cy="9"
       cx="10.999989"
       id="path4218"
       style="opacity:1;fill:none;fill-opacity:1;fill-rule:nonzero;stroke:#3b3b3b;stroke-width:0.2;stroke-linecap:round;stroke-linejoin:miter;stroke-miterlimit:4;stroke-dasharray:none;stroke-dashoffset:0;stroke-opacity:1" />
    <ellipse
       ry="0.50000942"
       rx="0.5"
       cy="8.9999905"
       cx="9.5"
       id="circle4220"
       style="opacity:1;fill:#3b3b3b;fill-opacity:1;fill-rule:nonzero;stroke:none;stroke-width:1.5;stroke-linecap:round;stroke-linejoin:miter;stroke-miterlimit:4;stroke-dasharray:none;stroke-dashoffset:0;stroke-opacity:1" />
    <ellipse
       ry="0.50000942"
       rx="0.5"
       style="opacity:1;fill:#3b3b3b;fill-opacity:1;fill-rule:nonzero;stroke:none;stroke-width:1.5;stroke-linecap:round;stroke-linejoin:miter;stroke-miterlimit:4;stroke-dasharray:none;stroke-dashoffset:0;stroke-opacity:1"
       id="circle4222"
       cx="12.5"
       cy="8.9999905" />
    <path
       inkscape:connector-curvature="0"
       id="rect4218"
       d="m 16.076172,4.251953 c -0.02454,-0.001 -0.05123,0.00305 -0.07617,0.00295 l 0,11.09375 c 0.423141,0.441856 0.877764,0.919793 1.424804,1.401367 0.185902,0.163654 0.379799,0.308719 0.575196,0.440429 l 0,-11.7851555 C 17.792949,5.1294745 17.580153,4.900096 17.364258,4.736348 17.058576,4.5045 16.615919,4.273922 16.076172,4.251973 Z"
       style="opacity:0.4;fill:#ffffff;fill-opacity:1;fill-rule:nonzero;stroke:none;stroke-width:0.5;stroke-linecap:round;stroke-linejoin:miter;stroke-miterlimit:4;stroke-dasharray:none;stroke-dashoffset:0;stroke-opacity:1" />
  </g>
</svg>

<svg xmlns="http://www.w3.org/2000/svg" viewBox="0 0 24 24">
 <g transform="translate(1,1)">
  <path d="m 5.924 4.252 c -0.539 0.022 -0.983 0.253 -1.289 0.485 -1.807 1.371 -3.385 7.089 -3.385 10.115 c 0 3.03 0.696 2.898 1.299 2.898 0.604 0 1.363 -0.415 2.026 -0.999 c 1.831 -1.612 2.675 -3.75 4.496 -3.75 l 3.858 0 c 1.821 0 2.664 2.138 4.496 3.75 0.663 0.584 1.422 0.999 2.026 0.999 0.604 0 1.299 0.129 1.299 -2.898 c 0 -3.03 -1.578 -8.744 -3.385 -10.115 -0.489 -0.371 -1.331 -0.74 -2.355 -0.253 -0.687 0.327 -1.301 0.517 -2.199 0.517 l -3.621 0 c -0.898 0 -1.512 -0.19 -2.199 -0.517 -0.384 -0.183 -0.743 -0.245 -1.066 -0.231" style="fill:#deddc9;fill-opacity:1;stroke:none;fill-rule:evenodd"/>
  <ellipse ry="1.5" rx="1.5" cy="9" cx="6.5" style="fill:#3b3b3b;opacity:1;fill-opacity:1;stroke:none;fill-rule:nonzero"/>
  <ellipse ry="0.75" rx="0.75" cy="7.5" cx="16.25" style="fill:#df8003;opacity:1;fill-opacity:1;stroke:none;fill-rule:nonzero"/>
  <ellipse ry="0.75" rx="0.75" cx="17.75" cy="9" style="fill:#e45146;opacity:1;fill-opacity:1;stroke:none;fill-rule:nonzero"/>
  <ellipse ry="0.75" rx="0.75" cy="10.5" cx="16.25" style="fill:#68bf45;opacity:1;fill-opacity:1;stroke:none;fill-rule:nonzero"/>
  <ellipse ry="0.75" rx="0.75" cx="14.75" cy="9" style="fill:#5b6dc1;opacity:1;fill-opacity:1;stroke:none;fill-rule:nonzero"/>
  <ellipse ry="0.625" rx="0.625" cy="9" cx="11" style="stroke-dasharray:none;stroke-opacity:1;fill:none;opacity:1;stroke-miterlimit:4;fill-opacity:1;stroke:#3b3b3b;fill-rule:nonzero;stroke-linecap:round;stroke-linejoin:miter;stroke-width:0.2;stroke-dashoffset:0"/>
  <ellipse ry="0.5" rx="0.5" cy="9" cx="9.5" style="fill:#3b3b3b;opacity:1;fill-opacity:1;stroke:none;fill-rule:nonzero"/>
  <ellipse ry="0.5" rx="0.5" cx="12.5" cy="9" style="fill:#3b3b3b;opacity:1;fill-opacity:1;stroke:none;fill-rule:nonzero"/>
  <path d="m 16.08 4.252 c -0.025 -0.001 -0.051 0.003 -0.076 0.003 l 0 11.09 c 0.423 0.442 0.878 0.92 1.425 1.401 0.186 0.164 0.38 0.309 0.575 0.44 l 0 -11.785 c -0.207 -0.276 -0.42 -0.505 -0.636 -0.669 -0.306 -0.232 -0.748 -0.462 -1.288 -0.484" style="fill:#fff;opacity:0.4;fill-opacity:1;stroke:none;fill-rule:nonzero"/>
 </g>
</svg>
